X: 5702
T: Cabin Hunter, The
R: reel
M: 4/4
K: Edorian
GEFD E2EF|GEED dAFD|GEED E2EF|DFAF BFAF||
GAFG EDEF|GE~E2 dAFD|GEED E2EF|DFAF BFAF:|
|:Beed efed|(3Bcd ef gfed|Bdce d2dB|A2DB AF~F2||
Beed efed|(3Bcd ef g2fe|dgge f~fe|dedB ADFA:|

